svg/fluentui-system-icons/ic_fluent_arrow_undo_32_regular.svg

<svg width="32" height="32" viewBox="0 0 32 32" fill="none" xmlns="http://www.w3.org/2000/svg">
<path d="M23.3737 7.04499C22.0942 5.60039 20.4382 4.90065 18.7578 4.94753C17.0796 4.99435 15.2872 5.79002 13.7593 7.50976L8.38434 13.9991H17C17.5523 13.9991 18 14.4469 18 14.9991C18 15.5514 17.5523 15.9991 17 15.9991H6C5.44771 15.9991 5 15.5514 5 14.9991V3.99915C5 3.44686 5.44771 2.99915 6 2.99915C6.55229 2.99915 7 3.44686 7 3.99915V12.5351L12.2404 6.20826L12.2513 6.19591C14.1019 4.10602 16.4008 3.01251 18.7021 2.94831C21.0051 2.88406 23.2198 3.85484 24.8709 5.7189C28.204 9.48199 27.1742 14.3839 24.8599 16.9121L24.8526 16.92L19.2755 22.7538L19.2715 22.7579L13.8382 28.3764L13.8347 28.38L13.5242 28.6979C13.1384 29.093 12.5052 29.1004 12.1101 28.7146C11.715 28.3287 11.7075 27.6956 12.0934 27.3004L12.4005 26.9861L12.4039 26.9825L17.8298 21.3718L17.8338 21.3676L23.3917 15.554C25.1464 13.6293 25.8985 9.89543 23.3737 7.04499Z" fill="#212121"/>
</svg>

<svg xmlns="http://www.w3.org/2000/svg" width="32" height="32"><path d="M23.374 7.045c-1.28-1.445-2.936-2.144-4.616-2.097-1.678.046-3.47.842-4.999 2.562L8.384 14H17a1 1 0 0 1 0 2H6a1 1 0 0 1-1-1V4a1 1 0 1 1 2 0v8.535l5.24-6.327.011-.012c1.85-2.09 4.15-3.183 6.451-3.248 2.303-.064 4.518.907 6.169 2.77 3.333 3.764 2.303 8.666-.011 11.194l-.007.008-5.578 5.834-.003.004-5.434 5.618-.003.004-.31.318a1 1 0 0 1-1.432-1.398l.307-.314.004-.003 5.426-5.611.004-.004 5.558-5.814c1.754-1.925 2.506-5.659-.018-8.509Z"/></svg>
